mimetypes/text-rust.svg

<svg xmlns="http://www.w3.org/2000/svg" width="48" height="48">
    <defs>
        <filter id="a">
            <feGaussianBlur in="SourceAlpha" stdDeviation=".8"/>
            <feOffset dy=".4"/>
            <feComponentTransfer>
                <feFuncA slope=".3" type="linear"/>
            </feComponentTransfer>
            <feMerge>
                <feMergeNode/>
                <feMergeNode in="SourceGraphic"/>
            </feMerge>
        </filter>
        <clipPath id="c">
            <path fill="none" stroke="#000" d="M26-30h2l12 12v2H26z"/>
        </clipPath>
        <clipPath id="b">
            <path fill="#fff" fill-rule="evenodd" d="M10-30h18l12 12v30c0 1.108-.892 2-2 2H10c-1.108 0-2-.892-2-2v-40c0-1.108.892-2 2-2z"/>
        </clipPath>
    </defs>
    <g transform="translate(0 32)">
        <path fill="#fafafa" fill-rule="evenodd" d="M10-30h18l12 12v30c0 1.108-.892 2-2 2H10c-1.108 0-2-.892-2-2v-40c0-1.108.892-2 2-2z" filter="url(#a)"/>
        <path fill-rule="evenodd" opacity=".1" d="M30-22c-1.781 0-2.673 2.154-1.414 3.414l12 12C41.846-5.326 43.999-6.219 44-8v-12a2 2 0 0 0-2-2z" clip-path="url(#b)"/>
        <rect fill="#fafafa" fill-rule="evenodd" width="14" height="14" x="28" y="-32" clip-path="url(#c)" filter="url(#a)" rx="2" ry="2"/>
        <path fill="#616161" fill-rule="evenodd" stroke="#616161" stroke-linecap="round" stroke-linejoin="round" stroke-width="2" d="M22-8v-4h4v4m2.196 1.268l3.464-2 2 3.464-3.464 2m0 2.536l3.464 2-2 3.464-3.464-2m-10.392-6l-3.464-2 2-3.464 3.464 2m0 9.464l-3.464 2-2-3.464 3.464-2M26 4v4h-4V4"/>
        <circle fill="#fafafa" fill-rule="evenodd" stroke="#616161" stroke-linecap="round" stroke-linejoin="round" stroke-width="2" cx="24" cy="-2" r="8"/>
        <path fill="none" stroke="#616161" stroke-linecap="round" stroke-linejoin="round" stroke-width="2" d="M25-6a2 2 0 0 1 2 2 2 2 0 0 1-2 2m0-4h-8m6 8h-6m8-4h-4m0 4v-8m7 8l-4-4m7 4h-3"/>
    </g>
</svg>

<svg xmlns="http://www.w3.org/2000/svg" width="48" height="48">
    <defs>
        <filter id="a" color-interpolation-filters="sRGB">
            <feFlood flood-opacity=".298" result="flood"/>
            <feComposite in="flood" in2="SourceGraphic" operator="in" result="composite1"/>
            <feGaussianBlur in="composite1" result="blur" stdDeviation=".8"/>
            <feOffset dy=".4" result="offset"/>
            <feComposite in="SourceGraphic" in2="offset" result="composite2"/>
        </filter>
        <clipPath id="c">
            <path d="M26-30h2l12 12v2H26z" fill="none" stroke="#000"/>
        </clipPath>
        <filter id="d" width="1.4" height="1.4" x="-.2" y="-.2" color-interpolation-filters="sRGB">
            <feFlood flood-opacity=".298" result="flood"/>
            <feComposite in="flood" in2="SourceGraphic" operator="in" result="composite1"/>
            <feGaussianBlur in="composite1" result="blur" stdDeviation=".8"/>
            <feOffset dy=".4" result="offset"/>
            <feComposite in="SourceGraphic" in2="offset" result="composite2"/>
        </filter>
        <clipPath id="b">
            <path d="M10-30h18l12 12v30c0 1.108-.892 2-2 2H10c-1.108 0-2-.892-2-2v-40c0-1.108.892-2 2-2z" fill="#fff" fill-rule="evenodd"/>
        </clipPath>
    </defs>
    <g transform="translate(0 32)">
        <path d="M10-30h18l12 12v30c0 1.108-.892 2-2 2H10c-1.108 0-2-.892-2-2v-40c0-1.108.892-2 2-2z" fill="#fafafa" fill-rule="evenodd" filter="url(#a)"/>
        <path d="M30-22c-1.781 0-2.673 2.154-1.414 3.414l12 12C41.846-5.326 43.999-6.219 44-8v-12a2 2 0 0 0-2-2z" clip-path="url(#b)" opacity=".1" fill-rule="evenodd"/>
        <rect width="14" height="14" x="28" y="-32" clip-path="url(#c)" rx="2" ry="2" fill="#fafafa" fill-rule="evenodd" filter="url(#d)"/>
        <path d="M22-8v-4h4v4M28.196-6.732l3.464-2 2 3.464-3.464 2M30.196-.732l3.464 2-2 3.464-3.464-2M17.804-3.268l-3.464-2 2-3.464 3.464 2M19.804 2.732l-3.464 2-2-3.464 3.464-2M26 4v4h-4V4" fill="#616161" fill-rule="evenodd" stroke="#616161" stroke-width="2" stroke-linecap="round" stroke-linejoin="round"/>
        <circle cx="24" cy="-2" r="8" fill="#fafafa" fill-rule="evenodd" stroke="#616161" stroke-width="2" stroke-linecap="round" stroke-linejoin="round"/>
        <path d="M25-6a2 2 0 0 1 2 2 2 2 0 0 1-2 2M25-6h-8M23 2h-6M25-2h-4M21 2v-8M28 2l-4-4M31 2h-3" fill="none" stroke="#616161" stroke-width="2" stroke-linecap="round" stroke-linejoin="round"/>
    </g>
</svg>
